!!!COM: John Williams
!!!OTL: It's A Trap Basic
!!!GAW: Star Wars: Episode VI: Return of the Jedi
!!!ODT: 1983
!!!OCL: Frank Lehman
!!!ENC: Claire Arthur
!!!ENC2: John McNamara
**kern	**harm	**altharm	**pedal	**cadence	**text
*clefG2	*	*	*	*	*
*k[b-e-]	*k[b-e-]	*k[b-e-]	*	*	*
*g:	*g:	*g:	*	*	*
*M3/4	*M3/4	*M3/4	*	*	*
=1	=1	=1	=1	=1	=1
*MM120	*	*	*	*	*
8r	i	.	Pedal: G	.	}**Melody harmonized in thirds but not complete chords
8b-	.	.	Pedal: G	.	.
8dd	.	.	Pedal: G	.	.
16dd	.	.	Pedal: G	.	.
16b-	.	.	Pedal: G	.	.
8cc	.	.	Pedal: G	.	.
8a	.	.	Pedal: G	.	.
=2	=2	=2	=2	=2	=2
8r	.	.	Pedal: G	.	.
8a	.	.	Pedal: G	.	.
8cc	.	.	Pedal: G	.	.
16cc	.	.	Pedal: G	.	.
16a	.	.	Pedal: G	.	.
8b-	.	.	Pedal: G	.	.
8g	.	.	Pedal: G	.	.
=3	=3	=3	=3	=3	=3
8r	.	.	Pedal: G	.	.
8g	.	.	Pedal: G	.	.
8dd	.	.	Pedal: G	.	.
16dd	.	.	Pedal: G	.	.
16b-	.	.	Pedal: G	.	.
8cc	.	.	Pedal: G	.	.
8a	.	.	Pedal: G	.	.
=4	=4	=4	=4	=4	=4
8r	.	.	Pedal: G	.	.
8a	.	.	Pedal: G	.	.
8cc	.	.	Pedal: G	.	.
16cc	.	.	Pedal: G	.	.
16a	.	.	Pedal: G	.	.
8b-	.	.	Pedal: G	.	.
8g	.	.	Pedal: G	.	.
=5	=5	=5	=5	=5	=5
8r	.	.	Pedal: G	.	.
8g	.	.	Pedal: G	.	.
8ee-	.	.	Pedal: G	.	.
16ee-	.	.	Pedal: G	.	.
16cc	.	.	Pedal: G	.	.
8dd	.	.	Pedal: G	.	.
8b-	.	.	Pedal: G	.	.
=6	=6	=6	=6	=6	=6
8cc	.	.	Pedal: G	.	.
8a	.	.	Pedal: G	.	.
8b-	.	.	Pedal: G	.	.
8g	.	.	Pedal: G	.	.
8a	.	.	Pedal: G	.	.
8f#	.	.	Pedal: G	.	.
=7	=7	=7	=7	=7	=7
8r	.	.	Pedal: G	.	.
8f#	.	.	Pedal: G	.	.
8cc	.	.	Pedal: G	.	.
16cc	.	.	Pedal: G	.	.
16a	.	.	Pedal: G	.	.
8b-	.	.	Pedal: G	.	.
8g	.	.	Pedal: G	.	.
=8	=8	=8	=8	=8	=8
8a	.	.	Pedal: G	.	.
8f#	.	.	Pedal: G	.	.
8g	.	.	Pedal: G	.	.
8e-	.	.	Pedal: G	.	.
8f#	.	.	Pedal: G	;;	.
8d	.	.	.	Pedal: G	.
=	=	=	=	=	=
*-	*-	*-	*-	*-	*-
